src/assets/icons/chevron-left.svg

<svg width="24" height="24" viewBox="0 0 24 24" fill="none" xmlns="http://www.w3.org/2000/svg">
<path d="M10.8191 12.3158L16.4614 6.67348C17.0728 6.06215 17.0728 5.06983 16.4614 4.4585C15.8501 3.84717 14.8578 3.84717 14.2464 4.4585L7.43317 11.2718C6.8558 11.8491 6.8558 12.7839 7.43317 13.3598L14.2464 20.173C14.8578 20.7844 15.8501 20.7844 16.4614 20.173C17.0728 19.5617 17.0728 18.5694 16.4614 17.9581L10.8191 12.3158Z" fill="white"/>
</svg>

<svg xmlns="http://www.w3.org/2000/svg" width="24" height="24" fill="none" xmlns:v="https://vecta.io/nano"><path d="M10.819 12.316l5.642-5.642c.611-.611.611-1.604 0-2.215s-1.604-.611-2.215 0l-6.813 6.813c-.577.577-.577 1.512 0 2.088l6.813 6.813c.611.611 1.604.611 2.215 0s.611-1.604 0-2.215l-5.642-5.642z" fill="#fff"/></svg>
